Newaita/actions/24/draw-star.svg

<svg height="24" viewBox="0 0 24 24" width="24" xmlns="http://www.w3.org/2000/svg"><path d="m11.957031 3.171875c-.40625-.023437-.785156.210937-.949219.582031l-2.183593 4.871094-5.308594.570312c-.386719.042969-.714844.308594-.835937.675782-.117188.371094-.011719.777344.277343 1.039062l3.960938 3.582032-1.097657 5.222656c-.082031.382812.070313.773437.386719 1.003906.3125.226562.734375.25 1.070313.058594l4.628906-2.660156 4.632812 2.660156c.335938.191406.753907.167968 1.070313-.058594.316406-.230469.464844-.621094.386719-1.003906l-1.097656-5.222656 3.957031-3.582032c.289062-.261718.398437-.667968.277343-1.039062-.121093-.367188-.445312-.632813-.832031-.675782l-5.308593-.570312-2.183594-4.871094c-.152344-.339844-.480469-.566406-.851563-.582031zm-.050781 3.398437 1.515625 3.378907c.144531.320312.445313.542969.792969.578125l3.683594.394531-2.746094 2.484375c-.261719.238281-.375.59375-.304688.9375l.761719 3.621094-3.210937-1.84375c-.304688-.171875-.679688-.171875-.984376 0l-3.207031 1.84375.757813-3.621094c.074218-.34375-.042969-.699219-.300782-.9375l-2.746093-2.484375 3.679687-.394531c.347656-.035156.652344-.257813.796875-.578125zm0 0" fill="#424242"/></svg>

<svg xmlns="http://www.w3.org/2000/svg" xmlns:xlink="http://www.w3.org/1999/xlink" width="24px" height="24px" viewBox="0 0 24 24" version="1.1">
<g id="surface1">
     <defs>
  <style id="current-color-scheme" type="text/css">
   .ColorScheme-Text { color:#424242; } .ColorScheme-Highlight { color:#eeeeee; }
  </style>
 </defs>
<path style="fill:currentColor" class="ColorScheme-Text" d="M 11.957031 3.171875 C 11.550781 3.148438 11.171875 3.382812 11.007812 3.753906 L 8.824219 8.625 L 3.515625 9.195312 C 3.128906 9.238281 2.800781 9.503906 2.679688 9.871094 C 2.5625 10.242188 2.667969 10.648438 2.957031 10.910156 L 6.917969 14.492188 L 5.820312 19.714844 C 5.738281 20.097656 5.890625 20.488281 6.207031 20.71875 C 6.519531 20.945312 6.941406 20.96875 7.277344 20.777344 L 11.90625 18.117188 L 16.539062 20.777344 C 16.875 20.96875 17.292969 20.945312 17.609375 20.71875 C 17.925781 20.488281 18.074219 20.097656 17.996094 19.714844 L 16.898438 14.492188 L 20.855469 10.910156 C 21.144531 10.648438 21.253906 10.242188 21.132812 9.871094 C 21.011719 9.503906 20.6875 9.238281 20.300781 9.195312 L 14.992188 8.625 L 12.808594 3.753906 C 12.65625 3.414062 12.328125 3.1875 11.957031 3.171875 Z M 11.90625 6.570312 L 13.421875 9.949219 C 13.566406 10.269531 13.867188 10.492188 14.214844 10.527344 L 17.898438 10.921875 L 15.152344 13.40625 C 14.890625 13.644531 14.777344 14 14.847656 14.34375 L 15.609375 17.964844 L 12.398438 16.121094 C 12.09375 15.949219 11.71875 15.949219 11.414062 16.121094 L 8.207031 17.964844 L 8.964844 14.34375 C 9.039062 14 8.921875 13.644531 8.664062 13.40625 L 5.917969 10.921875 L 9.597656 10.527344 C 9.945312 10.492188 10.25 10.269531 10.394531 9.949219 Z M 11.90625 6.570312 "/>
</g>
</svg>
